svg/material-icons/keyboard_alt/materialicons/24px.svg

<svg xmlns="http://www.w3.org/2000/svg" width="24" height="24" viewBox="0 0 24 24"><path d="M21 4H3c-1.1 0-2 .9-2 2v13c0 1.1.9 2 2 2h18c1.1 0 2-.9 2-2V6c0-1.1-.9-2-2-2zM7 12v2H5v-2h2zm-2-2V8h2v2H5zm6 2v2H9v-2h2zm-2-2V8h2v2H9zm7 6v1H8v-1h8zm-1-4v2h-2v-2h2zm-2-2V8h2v2h-2zm4 4v-2h2v2h-2zm2-4h-2V8h2v2z"/></svg>

<svg xmlns="http://www.w3.org/2000/svg" enable-background="new 0 0 24 24" height="24" viewBox="0 0 24 24" width="24"><g><rect fill="none" height="24" width="24" y="0"/></g><g><g><path d="M21,4H3C1.9,4,1,4.9,1,6v13c0,1.1,0.9,2,2,2h18c1.1,0,2-0.9,2-2V6C23,4.9,22.1,4,21,4z M7,12v2H5v-2H7z M5,10V8h2v2H5z M11,12v2H9v-2H11z M9,10V8h2v2H9z M16,16v1H8v-1H16z M15,12v2h-2v-2H15z M13,10V8h2v2H13z M17,14v-2h2v2H17z M19,10h-2V8h2V10z"/></g></g></svg>
